X:118
T:We Wish You a Merry Christmas
M:3/4
L:1/8
K:G
D2 | G2 GAGF | E2 E2 E2 | A2 ABAG | F2 D2 D2 | 
B2 BcBA | G2 E2 DD | E2 A2 F2 | G4 || 
D2 | G2 G2 G2 | F4 F2 | G2 F2 E2 | D4 A2 | 
B2 A2 GG | d2 D2 DD | E2 A2 F2 | G4 |] 

